build/assets/img/svg/bottle.svg

<svg width="69" height="69" viewBox="0 0 69 69" fill="none" xmlns="http://www.w3.org/2000/svg">
<path d="M25.5948 69.4307L46.6331 69.4623C50.3298 69.4692 53.3341 66.492 53.341 62.7953C53.2778 62.692 53.381 62.6288 53.3177 62.5255L45.7578 15.889C45.5847 15.143 44.9986 14.6501 44.1893 14.7199C43.4433 14.8931 42.9503 15.4792 43.0202 16.2885L50.5801 62.925C50.4967 65.1064 48.7881 66.7215 46.6699 66.7413L25.6316 66.7098C23.5135 66.7296 21.7318 64.981 21.712 62.8629L29.169 16.3974L29.2089 16.2308C29.1324 14.7155 30.0551 13.44 31.2541 12.8473L41.0355 12.818C41.7016 12.9779 42.4476 12.8048 42.774 12.1787C43.1005 11.5526 42.8641 10.7034 42.238 10.3769L40.7233 1.64778C40.6134 1.005 40.0273 0.51205 39.3213 0.518659L32.8003 0.538155C32.1342 0.378245 31.578 0.861117 31.5213 1.46392L30.0053 10.346C27.9804 11.4449 26.4848 13.6396 26.4247 16.0908L18.9678 62.5563L18.9278 62.7228C18.9841 66.5228 21.9613 69.527 25.5948 69.4307ZM33.9458 3.10267L38.1821 3.06302L39.2806 9.49081L39.1141 9.45084L33.1327 9.42375C33.1327 9.42375 32.9662 9.38377 32.8629 9.44704L33.9458 3.10267Z" fill="#444444"/>
</svg>

<svg width="69" height="69" fill="none" xmlns="http://www.w3.org/2000/svg"><path d="M25.595 69.43l21.038.032c3.697.007 6.701-2.97 6.708-6.667-.063-.103.04-.166-.023-.27l-7.56-46.636c-.173-.746-.76-1.239-1.569-1.17-.746.174-1.239.76-1.169 1.57l7.56 46.636c-.083 2.181-1.792 3.797-3.91 3.816l-21.038-.031c-2.119.02-3.9-1.729-3.92-3.847l7.457-46.466.04-.166c-.077-1.516.846-2.791 2.045-3.384l9.781-.029c.667.16 1.413-.013 1.739-.64.326-.625.09-1.475-.536-1.801l-1.515-8.73c-.11-.642-.696-1.135-1.402-1.128l-6.52.02c-.667-.16-1.223.322-1.28.925l-1.516 8.882c-2.025 1.099-3.52 3.294-3.58 5.745l-7.457 46.465-.04.167c.056 3.8 3.033 6.804 6.667 6.708zm8.35-66.327l4.237-.04 1.099 6.428-.167-.04-5.981-.027s-.167-.04-.27.023l1.083-6.344z" fill="#444"/></svg>
